app/img/contact/ic_phone.svg

<svg width="21" height="22" viewBox="0 0 21 22" fill="none" xmlns="http://www.w3.org/2000/svg">
    <path d="M19.4883 14.5103L19.4877 14.51L15.6776 12.5495L15.6775 12.5494C14.8071 12.1027 13.7135 12.3259 13.0919 13.12L12.1277 14.351C11.1701 13.7986 10.2988 13.173 9.33733 12.1905L9.3365 12.1897C8.32758 11.1827 7.7223 10.3333 7.14746 9.33348L8.38076 8.3711L8.38076 8.37111L8.38194 8.37016C9.15131 7.75089 9.40054 6.68442 8.95295 5.79095L8.95296 5.79095L8.95227 5.78962L6.98804 2.01037L6.98786 2.01001C6.71429 1.48874 6.24147 1.11638 5.67024 0.967652C5.09839 0.818757 4.50157 0.918233 4.00503 1.24037L4.00503 1.24036L4.00406 1.241L1.59019 2.84719C0.778832 3.38706 0.337082 4.29512 0.386112 5.27385L0.386089 5.27385L0.386242 5.27598C0.457304 6.26897 0.55241 7.03244 0.696824 7.58508C1.4357 10.4398 3.19756 13.3603 5.66907 15.8271C8.14052 18.2938 11.0664 20.0523 13.9264 20.7897C14.4802 20.9339 15.2689 21.0288 16.2399 21.0997L16.2399 21.1H16.2472H16.2474H16.2477H16.248H16.2483H16.2485H16.2488H16.2491H16.2494H16.2497H16.25H16.2502H16.2505H16.2508H16.2511H16.2514H16.2517H16.2519H16.2522H16.2525H16.2528H16.2531H16.2534H16.2537H16.254H16.2543H16.2545H16.2548H16.2551H16.2554H16.2557H16.256H16.2563H16.2566H16.2569H16.2572H16.2575H16.2578H16.2581H16.2584H16.2587H16.259H16.2593H16.2596H16.2599H16.2601H16.2604H16.2607H16.2611H16.2614H16.2617H16.262H16.2623H16.2626H16.2629H16.2632H16.2635H16.2638H16.2641H16.2644H16.2647H16.265H16.2653H16.2656H16.2659H16.2662H16.2665H16.2668H16.2672H16.2675H16.2678H16.2681H16.2684H16.2687H16.269H16.2693H16.2696H16.27H16.2703H16.2706H16.2709H16.2712H16.2715H16.2718H16.2722H16.2725H16.2728H16.2731H16.2734H16.2737H16.274H16.2744H16.2747H16.275H16.2753H16.2756H16.276H16.2763H16.2766H16.2769H16.2772H16.2776H16.2779H16.2782H16.2785H16.2789H16.2792H16.2795H16.2798H16.2801H16.2805H16.2808H16.2811H16.2814H16.2818H16.2821H16.2824H16.2827H16.2831H16.2834H16.2837H16.2841H16.2844H16.2847H16.285H16.2854H16.2857H16.286H16.2863H16.2867H16.287H16.2873H16.2877H16.288H16.2883H16.2887H16.289H16.2893H16.2897H16.29H16.2903H16.2907H16.291H16.2913H16.2917H16.292H16.2923H16.2927H16.293H16.2933H16.2937H16.294H16.2943H16.2947H16.295H16.2953H16.2957H16.296H16.2963H16.2967H16.297H16.2974H16.2977H16.298H16.2984H16.2987H16.299H16.2994H16.2997H16.3001H16.3004H16.3007H16.3011H16.3014H16.3018H16.3021H16.3024H16.3028H16.3031H16.3035H16.3038H16.3041H16.3045H16.3048H16.3052H16.3055H16.3058H16.3062H16.3065H16.3069H16.3072H16.3075H16.3079H16.3082H16.3086H16.3089H16.3093H16.3096H16.3099H16.3103H16.3106H16.311H16.3113H16.3117H16.312H16.3124H16.3127H16.313H16.3134H16.3137H16.3141H16.3144H16.3148H16.3151H16.3154H16.3158H16.3161H16.3165H16.3168H16.3172H16.3175H16.3179H16.3182H16.3186H16.3189H16.3192H16.3196H16.3199H16.3203H16.3206H16.321H16.3213H16.3217H16.322H16.3224H16.3227H16.3231H16.3234H16.3237H16.3241H16.3244H16.3248H16.3251H16.3255H16.3258H16.3262H16.3265H16.3269H16.3272H16.3276H16.3279H16.3283H16.3286H16.3289H16.3293H16.3296H16.33H16.3303H16.3307H16.331H16.3314H16.3317H16.3321H16.3324H16.3328H16.3331H16.3335H16.3338H16.3341H16.3345H16.3348H16.3352H16.3355H16.3359H16.3362H16.3366H16.3369H16.3373H16.3376H16.338H16.3383H16.3386H16.339H16.3393H16.3397H16.34H16.3404H16.3407H16.3411H16.3414H16.3418H16.3421H16.3424H16.3428H16.3431H16.3435H16.3438H16.3442H16.3445H16.3449H16.3452H16.3456H16.3459H16.3462H16.3466H16.3469H16.3473H16.3476H16.348H16.3483H16.3486H16.349H16.3493H16.3497H16.35H16.3504H16.3507H16.3511H16.3514H16.3517H16.3521H16.3524H16.3528H16.3531H16.3534H16.3538H16.3541H16.3545H16.3548H16.3552H16.3555H16.3558H16.3562H16.3565H16.3569H16.3572H16.3575H16.3579H16.3582H16.3586H16.3589H16.3592H16.3596H16.3599H16.3603H16.3606H16.3609H16.3613H16.3616H16.3619H16.3623H16.3626H16.363H16.3633H16.3636H16.364H16.3643H16.3646H16.365H16.3653H16.3656H16.366H16.3663H16.3666H16.367H16.3673H16.3676H16.368H16.3683H16.3686H16.369H16.3693H16.3696H16.37H16.3703H16.3706H16.371H16.3713H16.3716H16.372H16.3723H16.3726H16.373H16.3733H16.3736H16.3739H16.3743H16.3746H16.3749H16.3753H16.3756H16.3759H16.3762H16.3766H16.3769H16.3772H16.3776H16.3779H16.3782H16.3785H16.3789H16.3792H16.3795H16.3798H16.3801H16.3805H16.3808H16.3811H16.3814H16.3818H16.3821H16.3824H16.3827H16.383H16.3834H16.3837H16.384H16.3843H16.3846H16.385H16.3853H16.3856H16.3859H16.3862H16.3866H16.3869H16.3872H16.3875H16.3878H16.3881H16.3884H16.3888H16.3891H16.3894H16.3897H16.39H16.3903H16.3906H16.391H16.3913H16.3916H16.3919H16.3922H16.3925H16.3928H16.3931H16.3934H16.3937H16.394H16.3944H16.3947H16.395H16.3953H16.3956H16.3959H16.3962H16.3965H16.3968H16.3971H16.3974H16.3977H16.398H16.3983H16.3986H16.3989H16.3992H16.3995H16.3998H16.4001H16.4004H16.4007H16.401H16.4013H16.4016H16.4019H16.4022H16.4025H16.4028H16.4031H16.4034H16.4037H16.404H16.4043H16.4046H16.4048H16.4051H16.4054H16.4057H16.406H16.4063H16.4066H16.4069H16.4072H16.4074H16.4077H16.408H16.4083H16.4086H16.4089H16.4092H16.4094H16.4097H16.41H16.4103H16.4106H16.4109H16.4111H16.4114H16.4117H16.412H16.4123H16.4125H16.4128C17.3221 21.1 18.182 20.6343 18.6739 19.8735C18.6739 19.8734 18.674 19.8733 18.674 19.8733L20.2594 17.4407L20.2594 17.4407C20.5836 16.9429 20.6578 16.3463 20.5087 15.8008C20.3601 15.2569 20.0122 14.7842 19.4883 14.5103ZM18.9143 16.5677L18.9139 16.5674L18.9086 16.5756L17.3236 19.0076C17.3235 19.0078 17.3234 19.0079 17.3233 19.0081C17.1052 19.3343 16.7359 19.5281 16.3474 19.5066L16.3472 19.5066C15.4743 19.4595 14.772 19.3654 14.332 19.2499L14.3314 19.2497C11.7725 18.5936 9.09001 16.9747 6.82833 14.6938L6.82797 14.6935C4.54264 12.4125 2.94389 9.75837 2.26288 7.20371C2.14711 6.76454 2.05295 6.06377 2.00577 5.19258L2.00576 5.19243C1.98395 4.8007 2.15807 4.43383 2.48195 4.21833L4.89378 2.61349C4.9975 2.55175 5.0741 2.5344 5.14808 2.5344C5.19791 2.5344 5.22208 2.53587 5.24541 2.54751L5.25522 2.5524L5.26586 2.55506C5.34423 2.57461 5.47873 2.63274 5.55564 2.78627L5.55563 2.78627L5.55632 2.7876L7.52018 6.56615C7.61559 6.75736 7.55969 6.99066 7.40355 7.12861L5.15769 8.87468L5.09051 8.92692L5.13132 9.00159L5.4149 9.52049C5.41497 9.52062 5.41504 9.52075 5.41511 9.52088C6.15174 10.8964 6.86728 12.0156 8.22525 13.3472C9.53541 14.6549 10.6799 15.3924 12.0109 16.1041C12.011 16.1042 12.0111 16.1042 12.0112 16.1043L12.5312 16.3874L12.6056 16.4279L12.6578 16.3612L14.4327 14.0936L14.4328 14.0935C14.5659 13.9227 14.7963 13.8806 14.995 13.9795C14.9952 13.9796 14.9954 13.9797 14.9956 13.9798L18.8046 15.9397L18.8057 15.9403C18.9146 15.9946 18.99 16.0823 19.0318 16.2117C19.0082 16.3528 18.9854 16.4791 18.9143 16.5677Z"
          fill="#A2A2A4" stroke="#A2A2A4" stroke-width="0.2"/>
</svg>

<svg width="21" height="22" fill="none" xmlns="http://www.w3.org/2000/svg"><path d="m19.488 14.51-3.81-1.96a2.084 2.084 0 0 0-2.586.57l-.964 1.231a12.317 12.317 0 0 1-2.79-2.16l-.002-.001a12.714 12.714 0 0 1-2.189-2.857l1.234-.962a2.099 2.099 0 0 0 .572-2.58V5.79L6.987 2.01A2.063 2.063 0 0 0 5.67.968a2.08 2.08 0 0 0-1.665.272v.001L1.59 2.847A2.717 2.717 0 0 0 .386 5.274v.002c.071.993.166 1.756.31 2.31.74 2.854 2.502 5.774 4.973 8.241 2.472 2.467 5.397 4.225 8.257 4.963.554.144 1.343.239 2.314.31h.172c.91 0 1.77-.466 2.262-1.227l1.585-2.432a2.02 2.02 0 0 0 .25-1.64 2.04 2.04 0 0 0-1.02-1.29Zm-.574 2.058-.005.008-1.585 2.432a1.11 1.11 0 0 1-.977.499c-.873-.048-1.575-.142-2.015-.257-2.56-.656-5.242-2.275-7.504-4.556-2.285-2.282-3.884-4.936-4.565-7.49-.116-.44-.21-1.14-.257-2.011a1.083 1.083 0 0 1 .476-.975l2.412-1.605a.473.473 0 0 1 .254-.079c.05 0 .074.002.097.014l.01.004.01.003a.44.44 0 0 1 .29.231l.001.002L7.52 6.566a.476.476 0 0 1-.116.563L5.158 8.875l-.067.052.04.075.284.518c.737 1.376 1.452 2.496 2.81 3.827 1.31 1.308 2.455 2.045 3.786 2.757l.52.283.075.04.052-.066 1.775-2.267a.447.447 0 0 1 .563-.114l3.809 1.96a.436.436 0 0 1 .227.272c-.024.14-.047.267-.118.356Z" fill="#A2A2A4" stroke="#A2A2A4" stroke-width=".2"/></svg>
